X:1
T:Title
%%score { 1 | 2 }
L:1/8
M:6/8
K:Eb
V:1 treble nm="Grand Piano"
V:2 bass 
V:1
 z3 z2[Q:1/4=90] E | G2 G G2 [FA] | [GB]2 [GB] [GB]2 [EG] | [FA]2 [GB] [EG]2 [FA] | %4
[M:5/8] [DF]-[DF]- [DF]3 |[M:1/8] [DF] |[M:3/4] G2 G G2 [FA] | [GB]2 [GB] [GB]2 [Ge] | d2 e c2 d | %9
[M:5/8] [DB]-[DB]- [DB]3 |[M:1/8] [GB] |[M:3/4] [Ge]2 [Ge] [Ge]2 [GB] | c2 c c3 | %13
 [GB]2 [Ac] [GB]2 [EG] |[M:3/8] [DF]3 | [FA]3 |[M:3/4] [EG]2 [FA] [GB]2 [GB] | [Be]2 [Bd] c3 | %18
 B B2 [EG]2 [DF] |[M:5/8] E-E- E3 |] %20
V:2
 z3 z2 [E,G,] | [E,B,E]2 [E,B,E] [E,B,E]2 [E,B,] | [E,E]2 [E,E] [E,E]2 [E,B,] | %3
 [B,,B,]2 [B,,B,] [B,,B,]2 [B,,B,] |[M:5/8] [B,,B,]-[B,,B,]- [B,,B,]3 |[M:1/8] [B,,B,] | %6
[M:3/4] [E,B,E]2 [E,B,E] [E,B,E]2 [E,B,] | [E,E]2 [E,E] [E,E]2 [E,B,] | %8
 [F,B,F]2 [F,CF] [F,=A,E]2 [F,A,F] |[M:5/8] [B,,B,]-[B,,B,]- [B,,B,]3 |[M:1/8] [E,B,] | %11
[M:3/4] [E,B,]2 [E,B,] [E,B,]2 [E,E] | [A,EA]2 [A,EA] [A,EA]3 | [E,E]2 [E,E] [E,E]2 [E,B,] | %14
[M:3/8] [B,,B,]3 | [B,,B,]3 |[M:3/4] [E,B,]2 [E,B,] [E,B,]2 [E,B,] | %17
 [G,B,]2[K:treble] [G,E] [A,EA]3 | [B,EG] [B,G]2[K:bass] [B,,B,]2 [B,,B,] | %19
[M:5/8] [E,G,]-[E,G,]- [E,G,]3 |] %20

